X:1
T:Title
%%score { ( 1 3 ) | ( 2 4 ) }
L:1/8
Q:1/4=94
M:4/4
K:Eb
V:1 treble nm="Grand Piano"
V:3 treble 
V:2 bass 
V:4 bass 
V:1
 E>B, C>D E>F G>A | B>[Ge] [Ad]>[DAc] E2 z2 | [B,DA]>[B,EA] [B,FA]>[B,DA] G>G G>G | %3
w: E.~T.~Cassle~&~F.~H.~Cassel * * * * * * *|||
 F>[DB] [Fd]>[Ec] [B,DB]4 | E>B, C>D E>F G>A | B>[Ge] [Ad]>[Ac] [GB]4 | [FB] .[FB]3 c .c3 | %7
w: ||||
[M:7/8] d>[Ge][Fd]>[Ec] [DB]3 |[M:1/8] B |[M:4/4] [Ge]3- [Ge]/[Ad]/ [Ge]3- [Ge]/[Ad]/ | %10
w: |||
 [Ge]>[Gd] [EAc]>[GB] [B,EG]>[A,B,F] [G,B,E]>[G,E] | [DFB]3- [DFB]/[EF=A]/ [DFB]3- [DFB]/[EFA]/ | %12
w: ||
 [DFB]>[Fc] [Fd]>c [DB]>[DA] [EG]>[DF] | E>B, C>D E>F G>A | B>G A>B c>_d =d>B | e>e d>c B2 [Ad]2 | %16
w: ||||
 [Ge]6 z2 |] %17
w: |
V:2
 E,>B,, C,>D, E,>F, G,>A, | B,>[E,B,] [E,C]>E, z2 B,2 | %2
 B,,>C, D,>B,, [E,B,E]>[F,B,D] [G,B,E]>[E,B,E] | [D,B,]>[B,,B,] [F,B,]>[F,=A,] B,,4 | %4
 E,>B,, C,>D, E,>F, G,>A, | B,>[E,B,] [E,C]>[E,D] [E,E]4 | %6
 [D,B,] .[D,B,]3[K:treble] [F,=A,F] .[F,A,F]3 | %7
[M:7/8] [B,F]>[K:bass][E,B,][F,B,]>[F,=A,] [B,,B,]3 |[M:1/8] [B,A] | %9
[M:4/4] B,->[G,B,] B,>[B,,B,] B,->[G,B,] B,>[B,,B,] | B,>B, z z/ E/ E,>E, E,>E, | %11
 B,,>F, B,>F, B,,>F, B,>F, | z z/ C/ B,>[B,E] [B,,F,]>[B,,F,] [B,,B,]>[B,,B,] | %13
 [E,G,]>B,, C,>D, E,>F, G,>A, | B,>G, A,>B, C>=B, _B,>[K:treble][A,B,F] | %15
 [G,B,E]>[G,B,E] [A,CE]>[=A,E_G] [B,E=G]2[K:bass] [B,,B,]2 | [E,B,]6 z2 |] %17
V:3
 x8 | z4 [GB]4 | x8 | x8 | x8 | x8 | x8 |[M:7/8] x7 |[M:1/8] x |[M:4/4] x8 | x8 | x8 | x8 | x8 | %14
 x8 | x8 | x8 |] %17
V:4
 x8 | z4 E,4 | x8 | x8 | x8 | x8 | x4[K:treble] x4 |[M:7/8] x3/2[K:bass] x11/2 |[M:1/8] x | %9
[M:4/4] E,2 z2 E,2 z2 | E,2 E,2 z4 | x8 | B,,2 B,,2 z4 | x8 | x15/2[K:treble] x/ | x6[K:bass] x2 | %16
 x8 |] %17

